X: 688
T: La l
%%abc-version 2.0
%%abcx-abcm2ps-target-version 5.9.1 (29 Sep 2008)
%%abc-creator hum2abc beta
%%abcx-conversion-date 2013/10/02 07:52:30
%%abc-edited-by Helmut Schaffrath
%%humdrum-veritas 2337452496
%%humdrum-veritas-data 2694471669
%%continueall 1
%%barnumbers 0
L: 1/8
M: 2/4
K: F
c f e d [I:setbarnb 1]| 
c d A G | 
z c f d | 
c d A G | 
F D c f | 
e d c d | 
c A G A | 
G DF2 | 
A DF2 | 
z c f d | 
c d A G | 
F4 |]  



